logos/national-white.svg

<svg enable-background="new 0 0 252 288" viewBox="0 0 252 288" xmlns="http://www.w3.org/2000/svg"><path d="m49.2 18.8v173.6l76.8 76.8 76.9-76.9v-173.5zm123.1 41.3c-1.4-11.1-6.8-21.3-15.1-28.7h33.6v28.7zm18.6 107.2-43.6-76.4 43.6 35.3zm-129.7-41.4 44-35.3-44 76.8zm59.1-37.5-.2 158-57.5-57.5zm12 .5 57.1 100-57.3 57.3zm-40.5-28.8c3.3-18.9 21.3-31.5 40.2-28.2 14.4 2.5 25.7 13.8 28.2 28.2zm-30.6 0v-28.7h33.6c-8.3 7.4-13.7 17.6-15.1 28.7zm18.1 12h29.7l-47.8 38.4v-38.4zm111.6 38.7-47.9-38.7h47.8z" fill="#e3eddf"/></svg>

<?xml version="1.0" encoding="utf-8"?>
<!-- Generator: Adobe Illustrator 24.2.3, SVG Export Plug-In . SVG Version: 6.00 Build 0)  -->
<svg version="1.1" id="Layer_1" xmlns="http://www.w3.org/2000/svg" xmlns:xlink="http://www.w3.org/1999/xlink" x="0px" y="0px"
	 viewBox="0 0 252 288" style="enable-background:new 0 0 252 288;" xml:space="preserve">
<style type="text/css">
	.st0{fill:#E3EDDF;}
</style>
<path class="st0" d="M49.2,18.8v173.6l76.8,76.8l76.9-76.9V18.8L49.2,18.8z M172.3,60.1c-1.4-11.1-6.8-21.3-15.1-28.7h33.6v28.7
	H172.3z M190.9,167.3l-43.6-76.4l43.6,35.3V167.3z M61.2,125.9l44-35.3l-44,76.8V125.9z M120.3,88.4l-0.2,158l-57.5-57.5L120.3,88.4
	z M132.3,88.9l57.1,100l-57.3,57.3L132.3,88.9z M91.8,60.1c3.3-18.9,21.3-31.5,40.2-28.2c14.4,2.5,25.7,13.8,28.2,28.2H91.8z
	 M61.2,60.1V31.4h33.6C86.5,38.8,81.1,49,79.7,60.1H61.2z M79.3,72.1H109l-47.8,38.4V72.1H79.3z M190.9,110.8L143,72.1h47.8
	L190.9,110.8z"/>
</svg>
